www/assets/icons/attach_money.svg

<svg width="24" height="24" viewBox="0 0 24 24" xmlns="http://www.w3.org/2000/svg" fill='currentColor'><path d="M12.39 10.9C10.12 10.31 9.38997 9.7 9.38997 8.75C9.38997 7.66 10.4 6.9 12.09 6.9C13.87 6.9 14.53 7.75 14.59 9H16.8C16.73 7.28 15.68 5.7 13.59 5.19V3H10.59V5.16C8.64997 5.58 7.08997 6.84 7.08997 8.77C7.08997 11.08 8.99997 12.23 11.79 12.9C14.29 13.5 14.79 14.38 14.79 15.31C14.79 16 14.3 17.1 12.09 17.1C10.03 17.1 9.21997 16.18 9.10997 15H6.90997C7.02997 17.19 8.66997 18.42 10.59 18.83V21H13.59V18.85C15.54 18.48 17.09 17.35 17.09 15.3C17.09 12.46 14.66 11.49 12.39 10.9Z"/></svg>

<svg xmlns="http://www.w3.org/2000/svg" width="24" height="24" viewBox="0 0 24 24" fill='currentColor'><path d="M12.39 10.9c-2.27-.59-3-1.2-3-2.15 0-1.09 1.01-1.85 2.7-1.85 1.78 0 2.44.85 2.5 2.1h2.21c-.07-1.72-1.12-3.3-3.21-3.81V3h-3v2.16c-1.94.42-3.5 1.68-3.5 3.61 0 2.31 1.91 3.46 4.7 4.13 2.5.6 3 1.48 3 2.41 0 .69-.49 1.79-2.7 1.79-2.06 0-2.87-.92-2.98-2.1h-2.2c.12 2.19 1.76 3.42 3.68 3.83V21h3v-2.15c1.95-.37 3.5-1.5 3.5-3.55 0-2.84-2.43-3.81-4.7-4.4"/></svg>
